X:577
T:Marco's Reel
R:reel
D:Four Men and a Dog: Barking Mad
Z:id:hn-reel-577
M:C|
K:D
~F3E FEDF|~A3B AGFA|dFAd FAdA|cB~B2 cB~B2|
~E3D EFGA|cE~E2 c2cB|A2cB AGFE|1 cdBc ABGA:|2 D2CE D4||
|:~f3e fedf|edce dAFA|dFAd FAdA|cB~B2 cB~B2|
[1 ~g3f gfeg|fedf edcB|ABcd edcB|cdBc ABGA:|
[2 ~E3D EFGA|cE~E2 c2cB|A2cB AGFE|D2CE D4||
